icons/System/menu-5-fill.svg

<svg xmlns="http://www.w3.org/2000/svg" viewBox="0 0 24 24">
    <g>
        <path fill="none" d="M0 0h24v24H0z"/>
        <path d="M18 18v2H6v-2h12zm3-7v2H3v-2h18zm-3-7v2H6V4h12z"/>
    </g>
</svg>

<svg viewBox="0 0 24 24" xmlns="http://www.w3.org/2000/svg"><path d="M18 18V20H6V18H18ZM21 11V13H3V11H21ZM18 4V6H6V4H18Z"/></svg>
